X:1
T:Sarah's Fiddle
R:reel
M:4/4
L:1/8
K:A
AF|:~E2EA ABcA|~B2cB ABcd|~e2ce ~f2ac|~B2cB AEFA|
|EA~A2 ABcA|~B2cB ABcd|~e2ce ~f2ac|1 BAcB A3F:|2 BAcB A3g|]
|aA~A2 A2ag|~f2fa ~f2ec|efec ABcA|~B2cB AEFA|
|aA~A2 A2ag|~f2fe ~f2ec|~B2ce ~f2ac|BAcB A3g|
|aA~A2 A2ag|~f2fa ~f2ec|efec ABcA|~B2cB AEFA|
|EA~A2 ABcA|~B2cB ABcd|~e2ce ~f2ac|BAcB A3F|